austria/municipalities/41312.svg

<?xml version="1.0" encoding="UTF-8"?>
<!DOCTYPE svg PUBLIC "-//W3C//DTD SVG 1.1//EN" "http://www.w3.org/Graphics/SVG/1.1/DTD/svg11.dtd">
<svg xmlns="http://www.w3.org/2000/svg" version="1.1" width="166px" height="207px" style="shape-rendering:geometricPrecision; text-rendering:geometricPrecision; image-rendering:optimizeQuality; fill-rule:evenodd; clip-rule:evenodd" xmlns:xlink="http://www.w3.org/1999/xlink">
<g><path style="opacity:1" fill="#000000" d="M -0.5,-0.5 C 54.8333,-0.5 110.167,-0.5 165.5,-0.5C 165.5,44.1667 165.5,88.8333 165.5,133.5C 160.657,161.881 145.657,183.381 120.5,198C 112.336,201.554 104.002,204.388 95.5,206.5C 86.8333,206.5 78.1667,206.5 69.5,206.5C 29.6301,196.963 6.29672,171.963 -0.5,131.5C -0.5,87.5 -0.5,43.5 -0.5,-0.5 Z"/></g>
<g><path style="opacity:1" fill="#003265" d="M 147.5,71.5 C 142.23,66.9793 137.897,61.646 134.5,55.5C 133.797,53.2843 132.464,51.451 130.5,50C 121.506,49.5002 112.506,49.3336 103.5,49.5C 103.042,46.6062 103.709,44.1062 105.5,42C 98.6477,34.6487 91.981,27.1487 85.5,19.5C 84.6371,18.2736 84.6371,16.9403 85.5,15.5C 84.9524,13.6064 83.9524,11.9397 82.5,10.5C 86.3107,9.26245 86.3107,8.59578 82.5,8.5C 82.1667,3.16667 81.8333,3.16667 81.5,8.5C 77.5,8.83333 77.5,9.16667 81.5,9.5C 81.5228,11.5996 80.8561,13.4329 79.5,15C 79.7432,15.9021 80.0766,16.7354 80.5,17.5C 80.5,18.1667 80.5,18.8333 80.5,19.5C 80.6716,20.4916 80.3382,21.1583 79.5,21.5C 73.0328,28.1367 66.6995,34.97 60.5,42C 61.7932,42.49 63.1266,42.6567 64.5,42.5C 64.5,44.8333 64.5,47.1667 64.5,49.5C 57.1365,49.1694 49.8032,49.5027 42.5,50.5C 37.5,58.5 32.5,66.5 27.5,74.5C 29.1045,76.1789 29.7711,78.1789 29.5,80.5C 27.076,80.1924 24.7427,80.5258 22.5,81.5C 19.1667,86.8333 15.8333,92.1667 12.5,97.5C 14.4333,106.303 15.1,115.303 14.5,124.5C 10.8333,124.5 7.16667,124.5 3.5,124.5C 3.5,84.1667 3.5,43.8333 3.5,3.5C 56.1667,3.5 108.833,3.5 161.5,3.5C 161.5,43.8333 161.5,84.1667 161.5,124.5C 157.167,124.5 152.833,124.5 148.5,124.5C 148.181,107.453 148.514,90.4526 149.5,73.5C 149.145,72.4777 148.478,71.811 147.5,71.5 Z"/></g>
<g><path style="opacity:1" fill="#fe9900" d="M 85.5,15.5 C 84.1805,16.9418 82.5138,17.6085 80.5,17.5C 80.0766,16.7354 79.7432,15.9021 79.5,15C 80.8561,13.4329 81.5228,11.5996 81.5,9.5C 77.5,9.16667 77.5,8.83333 81.5,8.5C 81.8333,3.16667 82.1667,3.16667 82.5,8.5C 86.3107,8.59578 86.3107,9.26245 82.5,10.5C 83.9524,11.9397 84.9524,13.6064 85.5,15.5 Z"/></g>
<g><path style="opacity:1" fill="#fefffe" d="M 80.5,19.5 C 81.5983,20.6009 81.765,21.9343 81,23.5C 80.1016,26.0691 78.935,28.4024 77.5,30.5C 78.1667,27.5 78.8333,24.5 79.5,21.5C 80.3382,21.1583 80.6716,20.4916 80.5,19.5 Z"/></g>
<g><path style="opacity:1" fill="#fefffe" d="M 77.5,30.5 C 77.7406,32.8984 77.0739,34.8984 75.5,36.5C 75.2594,34.1016 75.9261,32.1016 77.5,30.5 Z"/></g>
<g><path style="opacity:1" fill="#fefffe" d="M 75.5,36.5 C 75.313,38.5643 74.813,40.5643 74,42.5C 73.5,69.8313 73.3334,97.1646 73.5,124.5C 70.8333,124.5 68.1667,124.5 65.5,124.5C 65.5,97.1667 65.5,69.8333 65.5,42.5C 67.8568,42.6633 70.1902,42.4966 72.5,42C 73.2291,39.9419 74.2291,38.1086 75.5,36.5 Z"/></g>
<g><path style="opacity:1" fill="#fefffe" d="M 75.5,42.5 C 84.1667,42.5 92.8333,42.5 101.5,42.5C 101.5,69.8333 101.5,97.1667 101.5,124.5C 92.8333,124.5 84.1667,124.5 75.5,124.5C 75.5,97.1667 75.5,69.8333 75.5,42.5 Z"/></g>
<g><path style="opacity:1" fill="#f9f9f9" d="M 134.5,55.5 C 137.897,61.646 142.23,66.9793 147.5,71.5C 142.376,72.8286 136.876,73.4952 131,73.5C 125.5,73.1667 120,72.8333 114.5,72.5C 119.86,65.6407 125.026,58.6407 130,51.5C 131.371,53.0414 132.871,54.3747 134.5,55.5 Z"/></g>
<g><path style="opacity:1" fill="#000000" d="M 80.5,53.5 C 81.5,53.5 82.5,53.5 83.5,53.5C 83.5,58.5 83.5,63.5 83.5,68.5C 82.5,68.5 81.5,68.5 80.5,68.5C 80.5,63.5 80.5,58.5 80.5,53.5 Z"/></g>
<g><path style="opacity:1" fill="#000000" d="M 90.5,53.5 C 91.8333,53.5 93.1667,53.5 94.5,53.5C 94.5,58.5 94.5,63.5 94.5,68.5C 93.1667,68.5 91.8333,68.5 90.5,68.5C 90.5,63.5 90.5,58.5 90.5,53.5 Z"/></g>
<g><path style="opacity:1" fill="#000000" d="M 128.5,59.5 C 128.511,57.3141 129.511,56.4808 131.5,57C 135.216,61.0482 138.55,65.3815 141.5,70C 134.5,70.6667 127.5,70.6667 120.5,70C 121.126,69.2496 121.626,68.4162 122,67.5C 124.213,68.7595 126.713,69.4262 129.5,69.5C 131.833,69.1667 134.167,68.8333 136.5,68.5C 134.473,64.8134 131.806,61.8134 128.5,59.5 Z"/></g>
<g><path style="opacity:1" fill="#000000" d="M 128.5,59.5 C 128.539,60.7562 128.039,61.7562 127,62.5C 126.415,61.0024 126.915,60.0024 128.5,59.5 Z"/></g>
<g><path style="opacity:1" fill="#fefffe" d="M 31.5,75.5 C 42.5,75.5 53.5,75.5 64.5,75.5C 64.5,77.1667 64.5,78.8333 64.5,80.5C 53.5,80.5 42.5,80.5 31.5,80.5C 31.5,78.8333 31.5,77.1667 31.5,75.5 Z"/></g>
<g><path style="opacity:1" fill="#fefffe" d="M 102.5,75.5 C 106.167,75.5 109.833,75.5 113.5,75.5C 113.5,91.8333 113.5,108.167 113.5,124.5C 109.833,124.5 106.167,124.5 102.5,124.5C 102.5,108.167 102.5,91.8333 102.5,75.5 Z"/></g>
<g><path style="opacity:1" fill="#fefffe" d="M 114.5,75.5 C 125.5,75.5 136.5,75.5 147.5,75.5C 147.5,91.8333 147.5,108.167 147.5,124.5C 136.5,124.5 125.5,124.5 114.5,124.5C 114.5,108.167 114.5,91.8333 114.5,75.5 Z"/></g>
<g><path style="opacity:1" fill="#000000" d="M 124.5,81.5 C 126.017,81.5106 127.184,82.1772 128,83.5C 128.5,91.8267 128.666,100.16 128.5,108.5C 126.5,108.5 124.5,108.5 122.5,108.5C 122.334,100.493 122.5,92.4931 123,84.5C 123.513,83.4734 124.013,82.4734 124.5,81.5 Z"/></g>
<g><path style="opacity:1" fill="#000000" d="M 136.5,81.5 C 138.017,81.5106 139.184,82.1772 140,83.5C 140.5,91.8267 140.666,100.16 140.5,108.5C 138.5,108.5 136.5,108.5 134.5,108.5C 134.334,100.493 134.5,92.4931 135,84.5C 136.039,83.7562 136.539,82.7562 136.5,81.5 Z"/></g>
<g><path style="opacity:1" fill="#fefffe" d="M 63.5,88.5 C 64.4951,100.322 64.8284,112.322 64.5,124.5C 62.5,124.5 60.5,124.5 58.5,124.5C 58.3335,114.494 58.5002,104.494 59,94.5C 60.332,92.34 61.832,90.34 63.5,88.5 Z"/></g>
<g><path style="opacity:1" fill="#000000" d="M 85.5,97.5 C 86.8333,97.5 88.1667,97.5 89.5,97.5C 89.5,100.167 89.5,102.833 89.5,105.5C 88.1667,105.5 86.8333,105.5 85.5,105.5C 85.5,102.833 85.5,100.167 85.5,97.5 Z"/></g>
<g><path style="opacity:1" fill="#fefffe" d="M 16.5,98.5 C 30.1667,98.5 43.8333,98.5 57.5,98.5C 57.5,107.167 57.5,115.833 57.5,124.5C 43.8333,124.5 30.1667,124.5 16.5,124.5C 16.5,115.833 16.5,107.167 16.5,98.5 Z"/></g>
<g><path style="opacity:1" fill="#000000" d="M 28.5,102.5 C 30.9115,102.137 32.4115,103.137 33,105.5C 33.4983,108.817 33.665,112.15 33.5,115.5C 31.1667,115.5 28.8333,115.5 26.5,115.5C 26.0551,110.899 26.7217,106.565 28.5,102.5 Z"/></g>
<g><path style="opacity:1" fill="#000000" d="M 42.5,102.5 C 44.451,102.227 45.951,102.893 47,104.5C 47.4986,108.152 47.6653,111.818 47.5,115.5C 45.5,115.5 43.5,115.5 41.5,115.5C 41.3718,111.119 41.7051,106.785 42.5,102.5 Z"/></g>
<g><path style="opacity:1" fill="#fefffe" d="M 3.5,127.5 C 56.1667,127.5 108.833,127.5 161.5,127.5C 160.572,146.13 154.072,162.464 142,176.5C 135.276,167.718 127.11,166.218 117.5,172C 114.509,174.99 112.343,178.49 111,182.5C 108.646,174.981 103.813,169.981 96.5,167.5C 96.6664,159.826 96.4997,152.159 96,144.5C 94.2621,140.759 91.7621,137.592 88.5,135C 79.1135,132.444 72.6135,135.611 69,144.5C 68.6667,152.167 68.3333,159.833 68,167.5C 62.2511,171.654 57.9177,176.987 55,183.5C 51.0508,170.19 42.5508,165.69 29.5,170C 26.8941,171.938 25.0608,174.438 24,177.5C 11.223,163.351 4.38966,146.684 3.5,127.5 Z"/></g>
<g><path style="opacity:1" fill="#fefffe" d="M -0.5,131.5 C 6.29672,171.963 29.6301,196.963 69.5,206.5C 46.1667,206.5 22.8333,206.5 -0.5,206.5C -0.5,181.5 -0.5,156.5 -0.5,131.5 Z"/></g>
<g><path style="opacity:1" fill="#fefffe" d="M 165.5,133.5 C 165.5,157.833 165.5,182.167 165.5,206.5C 142.167,206.5 118.833,206.5 95.5,206.5C 104.002,204.388 112.336,201.554 120.5,198C 145.657,183.381 160.657,161.881 165.5,133.5 Z"/></g>
<g><path style="opacity:1" fill="#000000" d="M 32.5,139.5 C 34.8333,139.5 37.1667,139.5 39.5,139.5C 39.5,144.5 39.5,149.5 39.5,154.5C 37.1667,154.5 34.8333,154.5 32.5,154.5C 32.5,149.5 32.5,144.5 32.5,139.5 Z"/></g>
<g><path style="opacity:1" fill="#000000" d="M 126.5,139.5 C 128.5,139.5 130.5,139.5 132.5,139.5C 132.5,144.5 132.5,149.5 132.5,154.5C 130.5,154.5 128.5,154.5 126.5,154.5C 126.5,149.5 126.5,144.5 126.5,139.5 Z"/></g>
<g><path style="opacity:1" fill="#006632" d="M 78.5,166.5 C 95.2576,165.753 106.091,173.42 111,189.5C 112.472,182.044 116.305,176.21 122.5,172C 130.511,168.608 136.177,170.774 139.5,178.5C 114.954,202.247 86.287,208.747 53.5,198C 43.8742,193.376 35.0408,187.542 27,180.5C 25.8238,176.74 26.9904,173.907 30.5,172C 37.2697,169.068 43.103,170.235 48,175.5C 50.7723,179.941 53.1056,184.608 55,189.5C 56.9303,183.804 59.7636,178.637 63.5,174C 68.0514,170.391 73.0514,167.891 78.5,166.5 Z"/></g>
</svg>

<svg xmlns="http://www.w3.org/2000/svg" width="166" height="207" style="shape-rendering:geometricPrecision;text-rendering:geometricPrecision;image-rendering:optimizeQuality;fill-rule:evenodd;clip-rule:evenodd"><path style="opacity:1" d="M-.5-.5h166v134c-4.843 28.381-19.843 49.881-45 64.5a157.946 157.946 0 0 1-25 8.5h-26c-39.87-9.537-63.203-34.537-70-75V-.5z"/><path style="opacity:1" fill="#003265" d="M147.5 71.5c-5.27-4.52-9.603-9.854-13-16-.703-2.216-2.036-4.049-4-5.5-8.994-.5-17.994-.666-27-.5-.458-2.894.209-5.394 2-7.5a635.927 635.927 0 0 1-20-22.5c-.863-1.226-.863-2.56 0-4-.548-1.894-1.548-3.56-3-5 3.81-1.238 3.81-1.904 0-2-.333-5.333-.667-5.333-1 0-4 .333-4 .667 0 1 .023 2.1-.644 3.933-2 5.5.243.902.577 1.735 1 2.5v2c.172.992-.162 1.658-1 2a561.7 561.7 0 0 0-19 20.5 8.434 8.434 0 0 0 4 .5v7a121.87 121.87 0 0 0-22 1l-15 24c1.605 1.679 2.271 3.679 2 6a13.117 13.117 0 0 0-7 1l-10 16c1.933 8.803 2.6 17.803 2 27h-11V3.5h158v121h-13a664.054 664.054 0 0 1 1-51c-.355-1.022-1.022-1.689-2-2z"/><path style="opacity:1" fill="#fe9900" d="M85.5 15.5c-1.32 1.442-2.986 2.108-5 2a11.104 11.104 0 0 1-1-2.5c1.356-1.567 2.023-3.4 2-5.5-4-.333-4-.667 0-1 .333-5.333.667-5.333 1 0 3.81.096 3.81.762 0 2 1.452 1.44 2.452 3.106 3 5z"/><path style="opacity:1" fill="#fefffe" d="M80.5 19.5c1.098 1.1 1.265 2.434.5 4-.898 2.57-2.065 4.902-3.5 7l2-9c.838-.342 1.172-1.008 1-2zM77.5 30.5c.24 2.398-.426 4.398-2 6-.24-2.398.426-4.398 2-6zM75.5 36.5a20.088 20.088 0 0 1-1.5 6c-.5 27.331-.667 54.665-.5 82h-8v-82c2.357.163 4.69-.003 7-.5.73-2.058 1.73-3.891 3-5.5zM75.5 42.5h26v82h-26v-82z"/><path style="opacity:1" fill="#f9f9f9" d="M134.5 55.5c3.397 6.146 7.73 11.48 13 16-5.124 1.329-10.624 1.995-16.5 2l-16.5-1a475.482 475.482 0 0 0 15.5-21 25.136 25.136 0 0 0 4.5 4z"/><path style="opacity:1" d="M80.5 53.5h3v15h-3v-15zM90.5 53.5h4v15h-4v-15zM128.5 59.5c.011-2.186 1.011-3.02 3-2.5a94.084 94.084 0 0 1 10 13c-7 .667-14 .667-21 0a9.457 9.457 0 0 0 1.5-2.5c2.213 1.26 4.713 1.926 7.5 2l7-1c-2.027-3.687-4.694-6.687-8-9z"/><path style="opacity:1" d="M128.5 59.5c.039 1.256-.461 2.256-1.5 3-.585-1.498-.085-2.498 1.5-3z"/><path style="opacity:1" fill="#fefffe" d="M31.5 75.5h33v5h-33v-5zM102.5 75.5h11v49h-11v-49zM114.5 75.5h33v49h-33v-49z"/><path style="opacity:1" d="M124.5 81.5c1.517.01 2.684.677 3.5 2a313 313 0 0 1 .5 25h-6c-.166-8.007 0-16.007.5-24l1.5-3zM136.5 81.5c1.517.01 2.684.677 3.5 2a313 313 0 0 1 .5 25h-6c-.166-8.007 0-16.007.5-24 1.039-.744 1.539-1.744 1.5-3z"/><path style="opacity:1" fill="#fefffe" d="M63.5 88.5c.995 11.822 1.328 23.822 1 36h-6c-.166-10.006 0-20.006.5-30a40.775 40.775 0 0 1 4.5-6z"/><path style="opacity:1" d="M85.5 97.5h4v8h-4v-8z"/><path style="opacity:1" fill="#fefffe" d="M16.5 98.5h41v26h-41v-26z"/><path style="opacity:1" d="M28.5 102.5c2.412-.363 3.911.637 4.5 3 .498 3.317.665 6.65.5 10h-7c-.445-4.601.222-8.935 2-13zM42.5 102.5c1.951-.273 3.451.393 4.5 2a60.94 60.94 0 0 1 .5 11h-6a61.254 61.254 0 0 1 1-13z"/><path style="opacity:1" fill="#fefffe" d="M3.5 127.5h158c-.928 18.63-7.428 34.964-19.5 49-6.724-8.782-14.89-10.282-24.5-4.5a26.592 26.592 0 0 0-6.5 10.5c-2.354-7.519-7.187-12.519-14.5-15 .166-7.674 0-15.341-.5-23-1.738-3.741-4.238-6.908-7.5-9.5-9.386-2.556-15.886.611-19.5 9.5l-1 23c-5.749 4.154-10.082 9.487-13 16-3.95-13.31-12.45-17.81-25.5-13.5-2.606 1.938-4.44 4.438-5.5 7.5-12.777-14.149-19.61-30.816-20.5-50z"/><path style="opacity:1" fill="#fefffe" d="M-.5 131.5c6.797 40.463 30.13 65.463 70 75h-70v-75zM165.5 133.5v73h-70a157.946 157.946 0 0 0 25-8.5c25.157-14.619 40.157-36.119 45-64.5z"/><path style="opacity:1" d="M32.5 139.5h7v15h-7v-15zM126.5 139.5h6v15h-6v-15z"/><path style="opacity:1" fill="#006632" d="M78.5 166.5c16.758-.747 27.591 6.92 32.5 23 1.472-7.456 5.305-13.29 11.5-17.5 8.011-3.392 13.677-1.226 17 6.5-24.546 23.747-53.213 30.247-86 19.5A116.816 116.816 0 0 1 27 180.5c-1.176-3.76-.01-6.593 3.5-8.5 6.77-2.932 12.603-1.765 17.5 3.5a82.935 82.935 0 0 1 7 14c1.93-5.696 4.764-10.863 8.5-15.5 4.551-3.609 9.551-6.109 15-7.5z"/></svg>
